X:1
T:Title
%%score { 1 | ( 2 3 ) }
L:1/8
M:3/4
K:Ab
V:1 treble nm="Grand Piano"
V:2 bass 
V:3 bass 
V:1
 z2 z2[Q:1/4=108] [CE]>[CE] | [CA]3 [CE] [EA]>[EB] | c4 A>B | c3 A c>d |[M:2/4] e4 |[M:1/4] e>e | %6
[M:3/4] e6 | c4 A>A | A>G B4 | [CEA]4 A>B | c3 B A>B |[M:2/4] c4 |[M:1/4] c>d |[M:3/4] e3 c A>c | %14
 [Ge]4 [Ge]>[Ge] | e6 | c4 A>A | A>G B4 |[M:2/4] [CEA]4 |[M:1/4] e>e |[M:3/4] e3 c A>c | %21
[M:7/8] e2 e3 c>c |[M:3/4] c3 [EGB] [EA]>[CEA] |[M:2/4] [EGB]4 |[M:1/4] [Ge]>[Ge] | %25
[M:3/4] e3 c A>c |[M:7/8] e2 e3 A>A |[M:3/4] c3 A B>[CEA] |[M:2/4] [CEA]4 |] %29
V:2
 z2 z2 [A,,A,]>[A,,A,] | [A,,E,]3 [A,,A,] [C,A,]>[C,G,] | [A,E]4 [A,C]>[A,D] | %3
 [A,E]3 [A,C] [A,E]>[B,E] |[M:2/4] [A,CA]4 |[M:1/4] [A,CA]>[A,CA] |[M:3/4] [A,CA]6 | %7
 [A,EA]4[K:bass] [A,CE]>[A,CE] | C>B, D4 | A,,4[K:treble] [A,C]>[A,D] | [A,E]3 [A,D] [A,C]>[A,D] | %11
[M:2/4] [A,E]4 |[M:1/4] [A,E]>[A,B,E] |[M:3/4] [A,CA]3[K:bass] [A,E] [A,CE]>[A,E] | %14
 [E,B,]4 [E,D]>[E,D] | [A,CA]6 | [A,EA]4[K:bass] [A,CE]>[A,CE] | C>B, D4 |[M:2/4] A,,4 | %19
[M:1/4][K:treble] [A,CA]>[A,CA] |[M:3/4] [A,CA]3 [A,EA] [A,CE]>[A,EA] | %21
[M:7/8] [A,CA]2 [A,CA]3 [A,EA]>[A,EA] |[M:3/4] [A,EA]3[K:bass] E, C,>A,, |[M:2/4] E,4 | %24
[M:1/4] [E,D]>[E,D] |[M:3/4][K:treble] [A,CA]3 [A,EA] [A,CE]>[A,EA] | %26
[M:7/8] [A,CA]2 [A,CA]3[K:bass] [A,CE]>[A,CE] |[M:3/4] [E,A,E]3 [E,CE] [E,DE]>A,, |[M:2/4] A,,4 |] %29
V:3
 x6 | x6 | x6 | x6 |[M:2/4] x4 |[M:1/4] x2 |[M:3/4] x6 | x4[K:bass] x2 | [E,-E]4 E,2 | %9
 x4[K:treble] x2 | x6 |[M:2/4] x4 |[M:1/4] x2 |[M:3/4] x3[K:bass] x3 | x6 | x6 | x4[K:bass] x2 | %17
 [E,-E]4 E,2 |[M:2/4] x4 |[M:1/4][K:treble] x2 |[M:3/4] x6 |[M:7/8] x7 |[M:3/4] x3[K:bass] x3 | %23
[M:2/4] x4 |[M:1/4] x2 |[M:3/4][K:treble] x6 |[M:7/8] x5[K:bass] x2 |[M:3/4] x6 |[M:2/4] x4 |] %29

